src/images/svg/symbols/markets-stocks-and-indices/american-stocks/stocks-novartis.svg

<svg width="32" height="32" viewBox="0 0 32 32" fill="none" xmlns="http://www.w3.org/2000/svg">
<path d="M0 16C0 7.16344 7.16344 0 16 0C24.8366 0 32 7.16344 32 16C32 24.8366 24.8366 32 16 32C7.16344 32 0 24.8366 0 16Z" fill="#F2F3F4"/>
<path d="M18.6673 15.2041L18.6294 15.3021C19.2613 15.5801 20.68 16.6828 20.68 18.904C20.68 20.9956 18.9169 23.103 16.146 23.103C12.6989 23.103 11.5109 21.0872 11.5109 19.2357C11.5109 16.8629 13.1697 15.2831 13.1697 13.122C13.1607 12.3577 12.8926 11.619 12.4094 11.0267C11.9262 10.4344 11.2563 10.0236 10.5093 9.86133L10.4525 9.95927C10.7234 10.2221 10.9383 10.537 11.0844 10.8851C11.2304 11.2331 11.3046 11.6071 11.3024 11.9846C11.3024 14.3195 9.33398 15.9782 9.33398 18.6575C9.33398 21.1251 11.0591 23.6402 16.0544 23.6402C20.5062 23.6402 22.8537 21.4601 22.8537 19.1409C22.8506 17.1504 21.4256 15.4664 18.6673 15.2041Z" fill="url(#paint0_linear_13177_23346)"/>
<path d="M16.1125 20.2974L17.3763 8.35742H14.7539L16.0177 20.2974H16.1125Z" fill="#0460A9"/>
<defs>
<linearGradient id="paint0_linear_13177_23346" x1="9.33082" y1="16.7492" x2="22.8506" y2="16.7492" gradientUnits="userSpaceOnUse">
<stop offset="0.3" stop-color="#E74A21"/>
<stop offset="0.7" stop-color="#EC9A1E"/>
</linearGradient>
</defs>
</svg>

<svg width="32" height="32" fill="none" xmlns="http://www.w3.org/2000/svg"><path d="M0 16C0 7.163 7.163 0 16 0s16 7.163 16 16-7.163 16-16 16S0 24.837 0 16Z" fill="#F2F3F4"/><path d="m18.667 15.204-.038.098c.632.278 2.051 1.38 2.051 3.602 0 2.092-1.763 4.199-4.534 4.199-3.447 0-4.635-2.016-4.635-3.867 0-2.373 1.659-3.953 1.659-6.114a3.378 3.378 0 0 0-2.66-3.26l-.057.097a2.8 2.8 0 0 1 .85 2.026c0 2.335-1.969 3.993-1.969 6.672 0 2.468 1.725 4.983 6.72 4.983 4.452 0 6.8-2.18 6.8-4.5-.003-1.99-1.428-3.674-4.187-3.936Z" fill="url(#a)"/><path d="m16.113 20.297 1.263-11.94h-2.622l1.264 11.94h.095Z" fill="#0460A9"/><defs><linearGradient id="a" x1="9.331" y1="16.749" x2="22.851" y2="16.749" gradientUnits="userSpaceOnUse"><stop offset=".3" stop-color="#E74A21"/><stop offset=".7" stop-color="#EC9A1E"/></linearGradient></defs></svg>
